X:1
T:Title
%%score ( 1 2 ) { 3 | 4 }
L:1/8
Q:1/4=88
M:6/8
K:F
V:1 treble nm="Grand Piano, Soprano"
V:2 treble 
V:3 bass nm="Choir Pad, Trusting in Jesus (Crosby)"
V:4 bass 
V:1
 [Fc][Fd][Fc] F[FB][FA] | [DG][CF][CE] [CF]3 | [EG][EG][EG] [FA][FA][Fc] | [F=B][Ge][Fd] [Ec]3 | %4
w: By~John~Robson~Sweney * * * * *||||
 [Fc][Fd][Fc] F[FB][FA] | [FA][FG]F [Fd]3 | [Ff][Fe][Fd] [Fd]<[Fc][FA] | [Ec][EB][CE] [CF]3 | %8
w: ||||
[M:9/8] cdc CCC C[CG][FA] | z3 G6 | [EG][FA][GB] [ce]3- [ce]/ z/ [Bd][Ac] | [GB][FA][EG] [FA]6 | %12
w: ||||
 cdc CCC C[CG][FA] | [FA][FB][Fc] d2- [Fd-] [Fd]3 | [df][ce][Bd] [Ac]3- [Ac][Bd][Ac] | z3 F6- | %16
w: ||||
 F3 z3 z3 |] %17
w: |
V:2
 x6 | x6 | x6 | x6 | x6 | x6 | x6 | x6 |[M:9/8] z3 .F6 | [FA][CG][CF] E2 E E3 | x9 | x9 | z3 .F6 | %13
 z3 .F3 z3 | x9 | [GB]2 [CE] C2 D C3- | C3 z3 z3 |] %17
V:3
 A,B,A, A,DC | B,A,G, A,3 | CCC CC[K:bass]A, | G,C=B, C2 _B, | A,B,A, A,[K:treble]DC | _EEE D3 | %6
 DC[K:bass]B, B,<A,C | CCB, A,3 |[M:9/8] z3 A,A,A, A,B,[K:treble]C | CB,A, C2 C C3 | %10
 z3[K:bass] G,G,G, G,G,[K:treble]C | C2 C C2 C C3 | z3[K:bass] A,A,A, A,B,[K:treble]C | %13
 _EEE D2 B, B,3 | z3 FFF FFF | C2[K:bass] B, A,2 B, A,3- | A,3 z3 z3 |] %17
V:4
 F,F,F, F,F,F, | B,,C,C, F,3 | C,C,C, F,F,F, | D,G,[G,,G,] C,3 | F,F,F, F,F,F, | F,G,A, B,3 | %6
 B, .B,2 F,<F,F, | C,C,C, F,3 |[M:9/8] z3 F,F,F, F,F,F, | F,F,F, C,2 C, C,3 | z3 C,C,C, C,C,C, | %11
 C,2 C, F,2 F, F,3 | z3 F,F,F, F,F,F, | F,G,A, B,2 B,, B,,3 | z3 C,C,C, C,C,C, | %15
 C,2 C, F,2 F, F,3- | F,3 z3 z3 |] %17

